assets/Oncoming automobile/Flat/oncoming_automobile_flat.svg

<svg width="32" height="32" viewBox="0 0 32 32" fill="none" xmlns="http://www.w3.org/2000/svg">
<path d="M6 29H8C8.55 29 9 28.55 9 28V24H5V28C5 28.55 5.45 29 6 29ZM24 29H26C26.55 29 27 28.55 27 28V24H23V28C23 28.55 23.45 29 24 29Z" fill="#321B41"/>
<path d="M10.15 19H7.2C6.54 19 6.01 18.47 6 17.81V17.19C6 16.53 6.53 16 7.19 16H7.81C9.29 16 10.48 17.2 10.48 18.67C10.48 18.85 10.33 19 10.15 19ZM21.8757 19.0007H24.8074C25.4633 19.0007 25.9901 18.4707 26 17.8107V17.1907C26 16.5307 25.4733 16.0007 24.8174 16.0007H24.2012C22.7304 16.0007 21.5478 17.2007 21.5478 18.6707C21.5478 18.8507 21.6968 19.0007 21.8757 19.0007Z" fill="#212121"/>
<path d="M25 26H7C5.9 26 5 25.1 5 24H27C27 25.11 26.1 26 25 26Z" fill="#9B9B9B"/>
<path d="M17.34 25H16.67H17.34H14.67C14.3 25 14 25.3 14 25.67V26.34C14 26.71 14.3 27.01 14.67 27.01H17.34H16.67H17.34C17.71 27.01 18.01 26.71 18.01 26.34V25.67C18.01 25.3 17.71 25 17.34 25Z" fill="#D3D3D3"/>
<path d="M9.32391 11.8927C9.30393 11.9281 9.28441 11.9639 9.26536 12.0001C9.17663 12.1687 9.09794 12.3456 9.03 12.53L7 18L15.97 18.8444L24.94 18L22.91 12.53C22.8396 12.3422 22.7592 12.1621 22.6694 11.9908C22.6521 11.9578 22.6344 11.9251 22.6164 11.8927H9.32391Z" fill="#26C9FC"/>
<path d="M12.5 10C11.0766 10 9.90799 10.7797 9.26544 12H22.6742C22.038 10.7797 20.9234 10 19.5 10H12.5ZM7.03999 18H24.96C26.21 18.61 27 19.88 27 21.27V24H5V21.27C5 19.88 5.78999 18.61 7.03999 18Z" fill="#F8312F"/>
<path d="M26.7718 20H25C24.4477 20 24 20.4477 24 21V22C24 22.5523 24.4477 23 25 23H27V21.27C27 20.8288 26.9204 20.3997 26.7718 20ZM5 23H7C7.55228 23 8 22.5523 8 22V21C8 20.4477 7.55228 20 7 20H5.2282C5.07958 20.3997 5 20.8288 5 21.27V23Z" fill="#D3D3D3"/>
<path d="M8 21V22C8 22.55 7.55 23 7 23H5V21.27C5 20.83 5.08999 20.4 5.23999 20H7C7.55 20 8 20.45 8 21Z" fill="#E6E6E6"/>
<path d="M24 21C24 20.45 24.45 20 25 20H26.76C26.91 20.4 27 20.83 27 21.27V23H25C24.45 23 24 22.55 24 22V21Z" fill="#E6E6E6"/>
<path d="M18 20H17H18H14C13.45 20 13 20.45 13 21V22C13 22.55 13.45 23 14 23H18H17H18C18.55 23 19 22.55 19 22V21C19 20.45 18.55 20 18 20Z" fill="#636363"/>
<path d="M12 21.5C12 20.6716 11.3284 20 10.5 20C9.67157 20 9 20.6716 9 21.5C9 22.3284 9.67157 23 10.5 23C11.3284 23 12 22.3284 12 21.5ZM23 21.5C23 22.3284 22.3284 23 21.5 23C20.6716 23 20 22.3284 20 21.5C20 20.6716 20.6716 20 21.5 20C22.3284 20 23 20.6716 23 21.5Z" fill="#FFB02E"/>
</svg>

<svg xmlns="http://www.w3.org/2000/svg" width="32" height="32" fill="none"><path fill="#321B41" d="M6 29h2c.55 0 1-.45 1-1v-4H5v4c0 .55.45 1 1 1Zm18 0h2c.55 0 1-.45 1-1v-4h-4v4c0 .55.45 1 1 1Z"/><path fill="#212121" d="M10.15 19H7.2c-.66 0-1.19-.53-1.2-1.19v-.62c0-.66.53-1.19 1.19-1.19h.62c1.48 0 2.67 1.2 2.67 2.67 0 .18-.15.33-.33.33Zm11.726 0h2.931c.656 0 1.183-.53 1.193-1.19v-.62c0-.66-.527-1.19-1.183-1.19h-.616c-1.47 0-2.653 1.2-2.653 2.67 0 .18.149.33.328.33Z"/><path fill="#9B9B9B" d="M25 26H7c-1.1 0-2-.9-2-2h22a2 2 0 0 1-2 2Z"/><path fill="#D3D3D3" d="M17.34 25h-.67.67-2.67c-.37 0-.67.3-.67.67v.67c0 .37.3.67.67.67h2.67-.67.67c.37 0 .67-.3.67-.67v-.67c0-.37-.3-.67-.67-.67Z"/><path fill="#26C9FC" d="M9.324 11.893a4.158 4.158 0 0 0-.294.637L7 18l8.97.844L24.94 18l-2.03-5.47a4.76 4.76 0 0 0-.294-.637H9.324Z"/><path fill="#F8312F" d="M12.5 10c-1.423 0-2.592.78-3.235 2h13.41c-.637-1.22-1.752-2-3.175-2h-7Zm-5.46 8h17.92c1.25.61 2.04 1.88 2.04 3.27V24H5v-2.73c0-1.39.79-2.66 2.04-3.27Z"/><path fill="#D3D3D3" d="M26.772 20H25a1 1 0 0 0-1 1v1a1 1 0 0 0 1 1h2v-1.73c0-.441-.08-.87-.228-1.27ZM5 23h2a1 1 0 0 0 1-1v-1a1 1 0 0 0-1-1H5.228c-.148.4-.228.829-.228 1.27V23Z"/><path fill="#E6E6E6" d="M8 21v1c0 .55-.45 1-1 1H5v-1.73c0-.44.09-.87.24-1.27H7c.55 0 1 .45 1 1ZM24 21c0-.55.45-1 1-1h1.76c.15.4.24.83.24 1.27V23h-2c-.55 0-1-.45-1-1v-1Z"/><path fill="#636363" d="M18 20h-1 1-4c-.55 0-1 .45-1 1v1c0 .55.45 1 1 1h4-1 1c.55 0 1-.45 1-1v-1c0-.55-.45-1-1-1Z"/><path fill="#FFB02E" d="M12 21.5a1.5 1.5 0 1 0-3 0 1.5 1.5 0 0 0 3 0Zm11 0a1.5 1.5 0 1 1-3 0 1.5 1.5 0 0 1 3 0Z"/></svg>
